X:1270
T:Natalie
M:C|
L:1/8
C:Daire Bracken
R:reel
D:Slide: The Flying Pig
Z:Devin McCabe
K:GDor
G3D FGAc|dGAG FGAc|d2gd adg2|agfd cdAF|
!G3A FGAc|dGAG FGAc|d2gd adg2|1agfc ~d2cA:|2agfc dAcA|
!:d2gd a~g3|agfd cdDG|FcAd cfdg|a2c'a agfc|
!d2gd adg2|agfd cdfg|a2c'a agf2|1dffd c2Ac:|2dffd c2A^F||
